X: 36079
T: Scatter The Mud
R: jig
M: 6/8
K: Edorian
BEE FEE|BEE EFA|BEE FEB|AFD EFA|
BEE FED|B,2 E EDB,|DEF AdB|AFE EFA:|
Bee d2B|AFD DFA|BeB d2 B|AFD E2 A|
BeB d2B|AFE FDD|DEF A2 B|AFE EFA|
Bee d2B|AFD DFA|BeB d2 e|fed e3|
efe d2B|AFE FDD|DEF A2 B|AFE EFA||

